X:1
T:15. Tolugt Mod
T:15. Tolugt Mod
T:Symra
T:Chr. Haslerud
T:Ivar Aasen
C:Chr. Haslerud
Z:Ivar Aasen
%%score [ 1 2 3 4 ]
L:1/8
Q:1/4=92
M:4/4
K:C
V:1 treble nm="Soprano"
V:2 treble nm="Alto"
V:3 treble-8 nm="Tenor"
V:4 bass nm="Bass"
V:1
!f!"^Kraftigt" C3 C E2 G2 | c2 B2 A2 G2 | B3 B c2 d2 | e2 d2 c2 B2 | A3 G ^F2 G2 | B4 A4 | G6 z2 | %7
w: To- lugt Mod er|godt aa ha- va|Tidt mot Strau- men|fær du ka- va,|um din Rett er|nog so|god.|
 c3 C D E F G | A4 G2 z2 | d3 G A B c d | e4 d2 z2 |!f! f3 f e2 d2 | g2 f2 e2 z2 | e3 e f2 f2 | %14
w: Y- mist fær du sjaa og|höy- ra|som er ilt i Syn og|Öy- ra;|tak det alt med|to- lugt Mod,|tag det alt med|
 e4 d4 | c6 z2 |] %16
w: to- lugt|Mod.|
V:2
!f! G,3 G, C2 E2 | G2 G2 F2 G2 | G3 G G2 F2 | E2 G2 ^F2 G2 | E3 E C2 B,2 | G4 ^F4 | D6 z2 | %7
w: To- lugt Mod er|godt aa ha- va|Tidt mot Strau- men|fær du ka- va,|um din Rett er|nog so|god.|
 C3 C B, C D E | F4 F2 z2 | F3 F E D E B, | C4 G2 z2 |!f! B3 B c2 G2 | G2 B2 c2 z2 | c3 c c2 A2 | %14
w: Y- mist fær du sjaa og|höy- ra|som er ilt i Syn og|Öy- ra;|tak det alt med|to- lugt Mod,|tag det alt med|
 G4 (G2 F2) | E6 z2 |] %16
w: to- lugt _|Mod.|
V:3
!f! E3 E G2 c2 | e2 e2 c2 c2 | d3 d G2 B2 | c2 B2 c2 d2 | c3 B A2 G2 | d4 c4 | B6 z2 | z4 G3 G | %8
w: To- lugt Mod er|godt aa ha- va|Tidt mot Strau- men|fær du ka- va,|um din Rett er|nog so|god.|Y- mist|
 c A F E D2 G2 | z4 G3 G | E F G c B2 G2 |!f! d3 d e2 B2 | c2 d2 e2 z2 | g3 g f2 c2 | c4 B4 | %15
w: fær du sjaa og höy- ra|som er|ilt i Syn og Öy- ra;|tak det alt med|to- lugt Mod,|tag det alt med|to- lugt|
 G6 z2 |] %16
w: Mod.|
V:4
!f! C,3 C, C,2 C,2 | C,2 C,2 F,2 E,2 | G,3 F, E,2 D,2 | C,2 G,2 A,2 G,2 | C,3 C, D,2 E,2 | %5
w: To- lugt Mod er|godt aa ha- va|Tidt mot Strau- men|fær du ka- va,|um din Rett er|
 D,4 D,4 | G,6 z2 | z4 G,3 G, | F, F, D, C, B,,2 G,,2 | z4 G,3 G, | C, D, E, E, G,2 G,2 | %11
w: nog so|god.|Y- mist|fær du sjaa og höy- ra|som er|ilt i Syn og Öy- ra;|
!f! G,3 G, C,2 F,2 | E,2 G,2 C2 z2 | _B,3 B, A,2 F,2 | G,4 G,,4 | C,6 z2 |] %16
w: tak det alt med|to- lugt Mod,|tag det alt med|to- lugt|Mod.|

